X: 955
T:Sweeps Hornpipe
M:2/2
L:1/8
S:Armitt MS
N:
K:D Major
A2|FDFA gfed|c2A2A2dc|BAGF GBAG|F2D2D2DE|FDFD AFAF|BGBG cAcA|dfed cABG|A
2A2A2:||:cd|ecAc ecAc|f2d2d2de|fdfd Bdfd|g4ee fg|afdf ecA2|dBGB AF D2|AB
AG F2D2E2C2|D2DD:||
